Mirae1/images/office.svg

<svg width="908" height="325" fill="none" xmlns="http://www.w3.org/2000/svg"><g filter="url(#a)"><g filter="url(#b)"><path d="M20.194 56.84H42.17l16.884 46.364c1.072 3.127 2.1 6.298 3.082 9.514l2.948 9.648h.67a198.536 198.536 0 0 0 2.948-9.648c.983-3.216 2.01-6.387 3.082-9.514L88.266 56.84h21.976V156h-18.09v-41.406c0-2.323.09-4.869.268-7.638l.536-8.576c.268-2.948.536-5.807.804-8.576.268-2.859.536-5.45.804-7.772h-.536l-8.04 23.316-15.276 41.674h-11.39l-15.41-41.674-7.906-23.316h-.536c.268 2.323.536 4.913.804 7.772.268 2.77.536 5.628.804 8.576.268 2.859.491 5.717.67 8.576.179 2.769.268 5.315.268 7.638V156H20.194V56.84zm114.371 0h19.832V156h-19.832V56.84zm64.063 45.962h12.864c6.432 0 11.3-1.295 14.606-3.886 3.394-2.68 5.092-6.7 5.092-12.06s-1.698-9.067-5.092-11.122c-3.306-2.144-8.174-3.216-14.606-3.216h-12.864v30.284zM232.798 156l-20.368-37.52h-13.802V156h-19.832V56.84h34.572c5.181 0 10.05.491 14.606 1.474 4.556.983 8.486 2.635 11.792 4.958 3.394 2.323 6.03 5.405 7.906 9.246 1.965 3.841 2.948 8.62 2.948 14.338 0 7.504-1.742 13.579-5.226 18.224-3.395 4.645-7.951 8.085-13.668 10.318L254.908 156h-22.11zm79.547-40.87-2.948-10.854a516.062 516.062 0 0 1-4.422-16.08 435.829 435.829 0 0 0-4.288-16.348h-.536a624.246 624.246 0 0 1-4.02 16.482 576.41 576.41 0 0 1-4.422 15.946l-2.948 10.854h23.584zm4.288 15.41h-32.16L277.505 156h-20.1l31.758-99.16h23.316L344.371 156h-20.77l-6.968-25.46zm39.346-73.7h60.836v16.482h-41.004v22.914h34.84v16.616h-34.84v26.532h42.478V156h-62.31V56.84zm155.011 58.29-2.948-10.854a510.581 510.581 0 0 1-4.422-16.08 435.829 435.829 0 0 0-4.288-16.348h-.536a632.238 632.238 0 0 1-4.02 16.482 576.41 576.41 0 0 1-4.422 15.946l-2.948 10.854h23.584zm4.288 15.41h-32.16L476.15 156h-20.1l31.758-99.16h23.316L543.016 156h-20.77l-6.968-25.46zm68.96 27.336c-6.7 0-13.222-1.251-19.564-3.752-6.254-2.501-11.792-6.075-16.616-10.72l11.39-13.668a46.669 46.669 0 0 0 11.926 8.04c4.466 1.965 8.888 2.948 13.266 2.948 5.181 0 9.112-1.027 11.792-3.082 2.68-2.055 4.02-4.824 4.02-8.308 0-1.876-.358-3.439-1.072-4.69-.715-1.251-1.742-2.367-3.082-3.35-1.251-.983-2.814-1.876-4.69-2.68a823.845 823.845 0 0 0-6.03-2.68l-13.266-5.628a52.98 52.98 0 0 1-7.37-3.886 29.123 29.123 0 0 1-6.432-5.494 29.05 29.05 0 0 1-4.556-7.504c-1.162-2.859-1.742-6.12-1.742-9.782 0-4.02.848-7.772 2.546-11.256a26.237 26.237 0 0 1 7.102-9.112c3.037-2.59 6.655-4.6 10.854-6.03 4.198-1.519 8.799-2.278 13.802-2.278 5.806 0 11.434 1.117 16.884 3.35 5.449 2.144 10.184 5.27 14.204 9.38l-10.05 12.462c-3.127-2.59-6.388-4.6-9.782-6.03-3.395-1.43-7.147-2.144-11.256-2.144-4.378 0-7.862.938-10.452 2.814-2.591 1.787-3.886 4.333-3.886 7.638 0 1.787.402 3.305 1.206 4.556.893 1.25 2.01 2.367 3.35 3.35 1.429.983 3.082 1.876 4.958 2.68 1.876.804 3.886 1.608 6.03 2.412l12.998 5.494c3.037 1.251 5.762 2.68 8.174 4.288 2.501 1.608 4.6 3.484 6.298 5.628 1.786 2.144 3.126 4.645 4.02 7.504.982 2.769 1.474 5.941 1.474 9.514a27.1 27.1 0 0 1-2.546 11.524c-1.608 3.663-3.976 6.879-7.102 9.648-3.127 2.68-6.968 4.824-11.524 6.432-4.467 1.608-9.559 2.412-15.276 2.412zm81.133 0c-6.7 0-13.222-1.251-19.564-3.752-6.254-2.501-11.792-6.075-16.616-10.72l11.39-13.668a46.669 46.669 0 0 0 11.926 8.04c4.466 1.965 8.888 2.948 13.266 2.948 5.181 0 9.112-1.027 11.792-3.082 2.68-2.055 4.02-4.824 4.02-8.308 0-1.876-.358-3.439-1.072-4.69-.715-1.251-1.742-2.367-3.082-3.35-1.251-.983-2.814-1.876-4.69-2.68a823.845 823.845 0 0 0-6.03-2.68l-13.266-5.628a52.98 52.98 0 0 1-7.37-3.886 29.123 29.123 0 0 1-6.432-5.494 29.05 29.05 0 0 1-4.556-7.504c-1.162-2.859-1.742-6.12-1.742-9.782 0-4.02.848-7.772 2.546-11.256a26.237 26.237 0 0 1 7.102-9.112c3.037-2.59 6.655-4.6 10.854-6.03 4.198-1.519 8.799-2.278 13.802-2.278 5.806 0 11.434 1.117 16.884 3.35 5.449 2.144 10.184 5.27 14.204 9.38l-10.05 12.462c-3.127-2.59-6.388-4.6-9.782-6.03-3.395-1.43-7.147-2.144-11.256-2.144-4.378 0-7.862.938-10.452 2.814-2.591 1.787-3.886 4.333-3.886 7.638 0 1.787.402 3.305 1.206 4.556.893 1.25 2.01 2.367 3.35 3.35 1.429.983 3.082 1.876 4.958 2.68 1.876.804 3.886 1.608 6.03 2.412l12.998 5.494c3.037 1.251 5.762 2.68 8.174 4.288 2.501 1.608 4.6 3.484 6.298 5.628 1.786 2.144 3.126 4.645 4.02 7.504.982 2.769 1.474 5.941 1.474 9.514 0 4.02-.849 7.861-2.547 11.524-1.607 3.663-3.975 6.879-7.101 9.648-3.127 2.68-6.968 4.824-11.524 6.432-4.467 1.608-9.559 2.412-15.276 2.412zM719.376 56.84h60.836v16.482h-41.004v22.914h34.84v16.616h-34.84v26.532h42.478V156h-62.31V56.84zm102.139 16.482h-27.872V56.84h75.844v16.482h-28.14V156h-19.832V73.322z" fill="#fff"/></g><g filter="url(#c)" fill="#fff"><path d="M207 262.263c0 19.035 14.206 38.123 38.478 38.123 24.272 0 23.257-7.284 23.257-7.284l-4.379-10.289s-42.109 13.905-42.109-19.54c0-33.444 26.088-30.6 37.97-28.021l5.154-10.023S209.83 207.736 207 262.263zM350.871 222.571v76.088h15.514v-60.801l30.387 60.801h21.549v-76.088h-14.633v60.615l-32.043-60.615h-20.774zM493.087 222.571h-58.878v13.107h19.893v62.981h16.155v-62.981h16.021l6.809-13.107zM521.551 266.224h27.183V252.56h-22.643l-4.54 5.476v-22.544h25.688l5.474-12.735h-31.162v-.186h-15.647V298.659h41.335l5.474-12.735h-31.162v-19.7zM301.019 266.224h27.182V252.56h-22.643l-4.539 5.476v-22.544h25.687l5.474-12.735h-31.161v-.186h-15.648V298.659h41.335l5.474-12.735h-31.161v-19.7zM617.385 285.924l-12.63-20.072c7.663-2.18 16.715-7.63 16.715-21.082 0-23.369-22.563-22.199-22.563-22.199h-27.77v76.087h15.647v-31.344h3.018l19.385 31.344h13.939l6.515-12.734h-12.283.027zm-30.601-29.218v-21.215h10.601s11.215-.319 11.215 9.438c0 9.757-8.785 11.751-10.894 11.751h-10.895l-.027.026zM649.401 220.452l18.905-16.882h6.382v30.015s-5.207.585-5.207 9.464c0 8.88 5.207 9.225 5.207 9.225v31.344h-23.899v-3.828l15.007-6.327v-55.271l-5.154 2.26h-11.241z"/><path d="M677.518 203.57h7.743v69.893l13.325 6.327v3.828h-21.068v-32.912s-5.26-1.17-5.26-7.87c0-6.699 2.456-7.257 5.26-8.507V203.57z"/></g></g><defs><filter id="a" x="4" y="0" width="908" height="317" filterUnits="userSpaceOnUse" color-interpolation-filters="sRGB"><feFlood flood-opacity="0" result="BackgroundImageFix"/><feColorMatrix in="SourceAlpha" values="0 0 0 0 0 0 0 0 0 0 0 0 0 0 0 0 0 0 127 0" result="hardAlpha"/><feOffset dy="4"/><feGaussianBlur stdDeviation="2"/><feComposite in2="hardAlpha" operator="out"/><feColorMatrix values="0 0 0 0 0 0 0 0 0 0 0 0 0 0 0 0 0 0 0.6 0"/><feBlend in2="BackgroundImageFix" result="effect1_dropShadow_1_623"/><feBlend in="SourceGraphic" in2="effect1_dropShadow_1_623" result="shape"/></filter><filter id="b" x=".194" y="38.964" width="889.293" height="142.912" filterUnits="userSpaceOnUse" color-interpolation-filters="sRGB"><feFlood flood-opacity="0" result="BackgroundImageFix"/><feColorMatrix in="SourceAlpha" values="0 0 0 0 0 0 0 0 0 0 0 0 0 0 0 0 0 0 127 0" result="hardAlpha"/><feOffset dy="4"/><feGaussianBlur stdDeviation="10"/><feComposite in2="hardAlpha" operator="out"/><feColorMatrix values="0 0 0 0 0 0 0 0 0 0.258824 0 0 0 0 0.478431 0 0 0 0.5 0"/><feBlend in2="BackgroundImageFix" result="effect1_dropShadow_1_623"/><feBlend in="SourceGraphic" in2="effect1_dropShadow_1_623" result="shape"/></filter><filter id="c" x="187" y="187.57" width="531.586" height="136.816" filterUnits="userSpaceOnUse" color-interpolation-filters="sRGB"><feFlood flood-opacity="0" result="BackgroundImageFix"/><feColorMatrix in="SourceAlpha" values="0 0 0 0 0 0 0 0 0 0 0 0 0 0 0 0 0 0 127 0" result="hardAlpha"/><feOffset dy="4"/><feGaussianBlur stdDeviation="10"/><feComposite in2="hardAlpha" operator="out"/><feColorMatrix values="0 0 0 0 0 0 0 0 0 0.258824 0 0 0 0 0.478431 0 0 0 0.7 0"/><feBlend in2="BackgroundImageFix" result="effect1_dropShadow_1_623"/><feBlend in="SourceGraphic" in2="effect1_dropShadow_1_623" result="shape"/></filter></defs></svg>

<svg width="908" height="325" viewBox="0 0 908 325" fill="none" xmlns="http://www.w3.org/2000/svg">
<g filter="url(#filter0_d_1_623)">
<g filter="url(#filter1_d_1_623)">
<path d="M20.194 56.84H42.17L59.054 103.204C60.126 106.331 61.1533 109.502 62.136 112.718C63.1187 115.934 64.1013 119.15 65.084 122.366H65.754C66.826 119.15 67.8087 115.934 68.702 112.718C69.6847 109.502 70.712 106.331 71.784 103.204L88.266 56.84H110.242V156H92.152V114.594C92.152 112.271 92.2413 109.725 92.42 106.956C92.5987 104.097 92.7773 101.239 92.956 98.38C93.224 95.432 93.492 92.5733 93.76 89.804C94.028 86.9453 94.296 84.3547 94.564 82.032H94.028L85.988 105.348L70.712 147.022H59.322L43.912 105.348L36.006 82.032H35.47C35.738 84.3547 36.006 86.9453 36.274 89.804C36.542 92.5733 36.81 95.432 37.078 98.38C37.346 101.239 37.5693 104.097 37.748 106.956C37.9267 109.725 38.016 112.271 38.016 114.594V156H20.194V56.84ZM134.565 56.84H154.397V156H134.565V56.84ZM198.628 102.802H211.492C217.924 102.802 222.792 101.507 226.098 98.916C229.492 96.236 231.19 92.216 231.19 86.856C231.19 81.496 229.492 77.7887 226.098 75.734C222.792 73.59 217.924 72.518 211.492 72.518H198.628V102.802ZM232.798 156L212.43 118.48H198.628V156H178.796V56.84H213.368C218.549 56.84 223.418 57.3313 227.974 58.314C232.53 59.2967 236.46 60.9493 239.766 63.272C243.16 65.5947 245.796 68.6767 247.672 72.518C249.637 76.3593 250.62 81.1387 250.62 86.856C250.62 94.36 248.878 100.435 245.394 105.08C241.999 109.725 237.443 113.165 231.726 115.398L254.908 156H232.798ZM312.345 115.13L309.397 104.276C307.879 99.0947 306.405 93.7347 304.975 88.196C303.635 82.6573 302.206 77.208 300.687 71.848H300.151C298.901 77.2973 297.561 82.7913 296.131 88.33C294.702 93.7793 293.228 99.0947 291.709 104.276L288.761 115.13H312.345ZM316.633 130.54H284.473L277.505 156H257.405L289.163 56.84H312.479L344.371 156H323.601L316.633 130.54ZM355.979 56.84H416.815V73.322H375.811V96.236H410.651V112.852H375.811V139.384H418.289V156H355.979V56.84ZM510.99 115.13L508.042 104.276C506.523 99.0947 505.049 93.7347 503.62 88.196C502.28 82.6573 500.851 77.208 499.332 71.848H498.796C497.545 77.2973 496.205 82.7913 494.776 88.33C493.347 93.7793 491.873 99.0947 490.354 104.276L487.406 115.13H510.99ZM515.278 130.54H483.118L476.15 156H456.05L487.808 56.84H511.124L543.016 156H522.246L515.278 130.54ZM584.238 157.876C577.538 157.876 571.016 156.625 564.674 154.124C558.42 151.623 552.882 148.049 548.058 143.404L559.448 129.736C563.021 133.041 566.996 135.721 571.374 137.776C575.84 139.741 580.262 140.724 584.64 140.724C589.821 140.724 593.752 139.697 596.432 137.642C599.112 135.587 600.452 132.818 600.452 129.334C600.452 127.458 600.094 125.895 599.38 124.644C598.665 123.393 597.638 122.277 596.298 121.294C595.047 120.311 593.484 119.418 591.608 118.614C589.821 117.81 587.811 116.917 585.578 115.934L572.312 110.306C569.81 109.234 567.354 107.939 564.942 106.42C562.53 104.901 560.386 103.07 558.51 100.926C556.634 98.6927 555.115 96.1913 553.954 93.422C552.792 90.5633 552.212 87.3027 552.212 83.64C552.212 79.62 553.06 75.868 554.758 72.384C556.455 68.8107 558.822 65.7733 561.86 63.272C564.897 60.6813 568.515 58.6713 572.714 57.242C576.912 55.7233 581.513 54.964 586.516 54.964C592.322 54.964 597.95 56.0807 603.4 58.314C608.849 60.458 613.584 63.5847 617.604 67.694L607.554 80.156C604.427 77.5653 601.166 75.5553 597.772 74.126C594.377 72.6967 590.625 71.982 586.516 71.982C582.138 71.982 578.654 72.92 576.064 74.796C573.473 76.5827 572.178 79.1287 572.178 82.434C572.178 84.2207 572.58 85.7393 573.384 86.99C574.277 88.2407 575.394 89.3573 576.734 90.34C578.163 91.3227 579.816 92.216 581.692 93.02C583.568 93.824 585.578 94.628 587.722 95.432L600.72 100.926C603.757 102.177 606.482 103.606 608.894 105.214C611.395 106.822 613.494 108.698 615.192 110.842C616.978 112.986 618.318 115.487 619.212 118.346C620.194 121.115 620.686 124.287 620.686 127.86C620.686 131.88 619.837 135.721 618.14 139.384C616.532 143.047 614.164 146.263 611.038 149.032C607.911 151.712 604.07 153.856 599.514 155.464C595.047 157.072 589.955 157.876 584.238 157.876ZM665.371 157.876C658.671 157.876 652.149 156.625 645.807 154.124C639.553 151.623 634.015 148.049 629.191 143.404L640.581 129.736C644.154 133.041 648.129 135.721 652.507 137.776C656.973 139.741 661.395 140.724 665.773 140.724C670.954 140.724 674.885 139.697 677.565 137.642C680.245 135.587 681.585 132.818 681.585 129.334C681.585 127.458 681.227 125.895 680.513 124.644C679.798 123.393 678.771 122.277 677.431 121.294C676.18 120.311 674.617 119.418 672.741 118.614C670.954 117.81 668.944 116.917 666.711 115.934L653.445 110.306C650.943 109.234 648.487 107.939 646.075 106.42C643.663 104.901 641.519 103.07 639.643 100.926C637.767 98.6927 636.248 96.1913 635.087 93.422C633.925 90.5633 633.345 87.3027 633.345 83.64C633.345 79.62 634.193 75.868 635.891 72.384C637.588 68.8107 639.955 65.7733 642.993 63.272C646.03 60.6813 649.648 58.6713 653.847 57.242C658.045 55.7233 662.646 54.964 667.649 54.964C673.455 54.964 679.083 56.0807 684.533 58.314C689.982 60.458 694.717 63.5847 698.737 67.694L688.687 80.156C685.56 77.5653 682.299 75.5553 678.905 74.126C675.51 72.6967 671.758 71.982 667.649 71.982C663.271 71.982 659.787 72.92 657.197 74.796C654.606 76.5827 653.311 79.1287 653.311 82.434C653.311 84.2207 653.713 85.7393 654.517 86.99C655.41 88.2407 656.527 89.3573 657.867 90.34C659.296 91.3227 660.949 92.216 662.825 93.02C664.701 93.824 666.711 94.628 668.855 95.432L681.853 100.926C684.89 102.177 687.615 103.606 690.027 105.214C692.528 106.822 694.627 108.698 696.325 110.842C698.111 112.986 699.451 115.487 700.345 118.346C701.327 121.115 701.819 124.287 701.819 127.86C701.819 131.88 700.97 135.721 699.272 139.384C697.665 143.047 695.297 146.263 692.171 149.032C689.044 151.712 685.203 153.856 680.647 155.464C676.18 157.072 671.088 157.876 665.371 157.876ZM719.376 56.84H780.212V73.322H739.208V96.236H774.048V112.852H739.208V139.384H781.686V156H719.376V56.84ZM821.515 73.322H793.643V56.84H869.487V73.322H841.347V156H821.515V73.322Z" fill="white"/>
</g>
<g filter="url(#filter2_d_1_623)">
<path d="M207 262.263C207 281.298 221.206 300.386 245.478 300.386C269.75 300.386 268.735 293.102 268.735 293.102L264.356 282.813C264.356 282.813 222.247 296.718 222.247 263.273C222.247 229.829 248.335 232.673 260.217 235.252L265.371 225.229C265.371 225.229 209.83 207.736 207 262.263Z" fill="white"/>
<path d="M350.871 222.571V298.659H366.385V237.858L396.772 298.659H418.321V222.571H403.688V283.186L371.645 222.571H350.871Z" fill="white"/>
<path d="M493.087 222.571H434.209V235.678H454.102V298.659H470.257V235.678H486.278L493.087 222.571Z" fill="white"/>
<path d="M521.551 266.224H548.734V252.56H526.091L521.551 258.036V235.492H547.239L552.713 222.757H521.551V222.571H505.904V222.757V235.492V285.924V290.843V298.659H547.239L552.713 285.924H521.551V266.224Z" fill="white"/>
<path d="M301.019 266.224H328.201V252.56H305.558L301.019 258.036V235.492H326.706L332.18 222.757H301.019V222.571H285.371V222.757V235.492V285.924V290.843V298.659H326.706L332.18 285.924H301.019V266.224Z" fill="white"/>
<path d="M617.385 285.924L604.755 265.852C612.418 263.672 621.47 258.222 621.47 244.77C621.47 221.401 598.907 222.571 598.907 222.571H571.137V298.658H586.784V267.314H589.802L609.187 298.658H623.126L629.641 285.924H617.358H617.385ZM586.784 256.706V235.491H597.385C597.385 235.491 608.6 235.172 608.6 244.929C608.6 254.686 599.815 256.68 597.706 256.68H586.811L586.784 256.706Z" fill="white"/>
<path d="M649.401 220.452L668.306 203.57H674.688V233.585C674.688 233.585 669.481 234.17 669.481 243.049C669.481 251.929 674.688 252.274 674.688 252.274V283.618H650.789V279.79L665.796 273.463V218.192L660.642 220.452H649.401Z" fill="white"/>
<path d="M677.518 203.57H685.261V273.463L698.586 279.79V283.618H677.518V250.706C677.518 250.706 672.258 249.536 672.258 242.836C672.258 236.137 674.714 235.579 677.518 234.329V203.57Z" fill="white"/>
</g>
</g>
<defs>
<filter id="filter0_d_1_623" x="4" y="0" width="908" height="317" filterUnits="userSpaceOnUse" color-interpolation-filters="sRGB">
<feFlood flood-opacity="0" result="BackgroundImageFix"/>
<feColorMatrix in="SourceAlpha" type="matrix" values="0 0 0 0 0 0 0 0 0 0 0 0 0 0 0 0 0 0 127 0" result="hardAlpha"/>
<feOffset dy="4"/>
<feGaussianBlur stdDeviation="2"/>
<feComposite in2="hardAlpha" operator="out"/>
<feColorMatrix type="matrix" values="0 0 0 0 0 0 0 0 0 0 0 0 0 0 0 0 0 0 0.6 0"/>
<feBlend mode="normal" in2="BackgroundImageFix" result="effect1_dropShadow_1_623"/>
<feBlend mode="normal" in="SourceGraphic" in2="effect1_dropShadow_1_623" result="shape"/>
</filter>
<filter id="filter1_d_1_623" x="0.194092" y="38.9641" width="889.293" height="142.912" filterUnits="userSpaceOnUse" color-interpolation-filters="sRGB">
<feFlood flood-opacity="0" result="BackgroundImageFix"/>
<feColorMatrix in="SourceAlpha" type="matrix" values="0 0 0 0 0 0 0 0 0 0 0 0 0 0 0 0 0 0 127 0" result="hardAlpha"/>
<feOffset dy="4"/>
<feGaussianBlur stdDeviation="10"/>
<feComposite in2="hardAlpha" operator="out"/>
<feColorMatrix type="matrix" values="0 0 0 0 0 0 0 0 0 0.258824 0 0 0 0 0.478431 0 0 0 0.5 0"/>
<feBlend mode="normal" in2="BackgroundImageFix" result="effect1_dropShadow_1_623"/>
<feBlend mode="normal" in="SourceGraphic" in2="effect1_dropShadow_1_623" result="shape"/>
</filter>
<filter id="filter2_d_1_623" x="187" y="187.57" width="531.586" height="136.816" filterUnits="userSpaceOnUse" color-interpolation-filters="sRGB">
<feFlood flood-opacity="0" result="BackgroundImageFix"/>
<feColorMatrix in="SourceAlpha" type="matrix" values="0 0 0 0 0 0 0 0 0 0 0 0 0 0 0 0 0 0 127 0" result="hardAlpha"/>
<feOffset dy="4"/>
<feGaussianBlur stdDeviation="10"/>
<feComposite in2="hardAlpha" operator="out"/>
<feColorMatrix type="matrix" values="0 0 0 0 0 0 0 0 0 0.258824 0 0 0 0 0.478431 0 0 0 0.7 0"/>
<feBlend mode="normal" in2="BackgroundImageFix" result="effect1_dropShadow_1_623"/>
<feBlend mode="normal" in="SourceGraphic" in2="effect1_dropShadow_1_623" result="shape"/>
</filter>
</defs>
</svg>
